X:1
T:Walshe's
R:Hornpipe
D:Brock McGuire Band, "Brock McGuire Band", 2004
M:4/4
K:A
|: (3ABc EF Ac ec | (3def Bc de f2 | fe ce ae (3cBA | Be (3cBA BA F2 |
   (3ABc EF Ac ec | (3def Bc de f2 | fe ce ae (3cBA |1 Be cB A2 G2 :|2 Be cB A2 g2
|: ae ce fe ce | ae ce fe cB | Ae ce fe (3cBA | Be (3cBA BA F2 |
   (3ABc EF Ac ec | (3def Bc de f2 | fe ce ae (3cBA |1 Be cB A2 g2 :|2 Be cB A2 G2 ||
